X:95
T:score182
L:1/16
Q:1/4=96
M:2/4
I:linebreak $
K:F
!p! .A2 | .c4 z2 (3(c=Bd) | .c4 z2 .A2 | .B4 z2 (3(BAc) | .B4 z2 (B2 |!<(! A>c f4 e2 | %6
 f2 a4!<)!!>(! g2- | g2 a4 bc')!>)! | (c'2b2) z4 | (Tb2 d'4 c'b) | (b2a2- a>gb>g) | (g2f2- f>eg>e | %12
 f4) z4 |] %13
